X:1
T:What Wilt Thou Have Me to Do?
T:What Wilt Thou Have Me to Do?
T:Arranged from M. C. by Peter Philip Bilhorn
T:Byron A. Robinson, 1898
T:Public Domain Courtesy of the Cyber Hymnal™
C:Arranged from M. C. by Peter Philip Bilhorn
Z:Public Domain
Z:Courtesy of the Cyber Hymnal™
%%score ( 1 2 ) ( 3 4 )
L:1/8
Q:1/4=140
M:3/4
K:Eb
V:1 treble 
V:2 treble 
V:3 bass 
V:4 bass 
V:1
 [EG]2 [DF]2 E2 | [DA]2 [DG]2 [DF]2 | [EB]2 [DA]2 [_DG]2 | c6 | [EB]2 [FA]2 [EG]2 | %5
w: 1.~Lord, Thou hast|grant- ed sal-|va- tion to|me,|What wilt Thou|
w: 2.~Since I am|saved by the|Cru- ci- fied|One,|What wilt Thou|
w: 3.~Par- don is|grant- ed thro’|Him who hath|died,|What wilt Thou|
w: 4.~Rea- dy and|will- ing Thy|voice to o-|bey,|What wilt Thou|
 [EF]2 [EG]2 E2 | [DF]6 | [EG]2 [DF]2 E2 |!<(! [DA]2 [DG]2 [DF]2!<)! | [EB]2 [Ee]2 [Fd]2 | [Ec]6 | %11
w: have me to|do?|From Sa- tan’s|bond- age at|last I am|free,|
w: have me to|do?|I would point|o- thers to|God’s on- ly|Son,|
w: have me to|do?|I am so|hap- py with|Thee at my|side,|
w: have me to|do?|Bid me to|fol- low Thee|day un- to|day,|
 [EB]2 [FA]2 [EG]2 | [EF]2 [EG]3 [DF] | E6 ||"^Refrain" [EB]2 [EG]2 [DA]2 | [EB]2 [Ec]2 [Ad]2 | %16
w: What wilt Thou|have me to|do?|||
w: What wilt Thou|have me to|do?|What wilt Thou|have me to|
w: What wilt Thou|have me to|do?|||
w: What wilt Thou|have me to|do?|||
 [Ge]6 | [Ge]2 [Bd]2 [Ac]2 | [GB]2 [EG]2 [E=A]2 | [DB]6 | [EG]2 [DF]2 E2 | %21
w: |||||
w: do?|Where wilt Thou|have me to|go?|Je- sus, my|
w: |||||
w: |||||
!<(! [DA]2 [DG]2 [DF]2!<)! | [EB]2 [Ee]2 [Fd]2 | [Ec]6 | [EB]2 [FA]2 [EG]2 | [EF]2 [DG]3 [DF] | %26
w: |||||
w: Mas- ter, Thy|will shall be|mine,|What wilt Thou|have me to|
w: |||||
w: |||||
 E6 |] %27
w: |
w: do?|
w: |
w: |
V:2
 x4 E2 | x6 | x6 | (C2 D4) | x6 | x4 E2 | x6 | x4 E2 | x6 | x6 | x6 | x6 | x6 | E6 || x6 | x6 | %16
 x6 | x6 | x6 | x6 | x4 E2 | x6 | x6 | x6 | x6 | x6 | E6 |] %27
V:3
 [E,B,]2 [A,B,]2 [G,B,]2 | [F,B,]2 B,2 [A,B,]2 | [G,B,]2 [F,B,]2 [E,B,]2 | A,6 | %4
 [G,B,]2 [D,B,]2 [E,B,]2 | [C,=A,]2 [F,A,]2 [F,A,]2 | [B,,B,]6 | [E,B,]2 [A,B,]2 [G,B,]2 | %8
 [F,B,]2 B,2 [A,B,]2 | [G,B,]2 [G,B,]2 [G,=B,]2 | (C4 G,2) | [E,G,]2 [D,B,]2 [E,B,]2 | %12
 [C,=A,]2 [B,,B,]3 [B,,_A,] | [E,G,]6 || [G,B,]2 [E,B,]2 [F,B,]2 | [G,B,]2 A,2 [F,B,]2 | [E,B,]6 | %17
 [E,B,]2 [E,C]2 [E,D]2 | [E,E]2 [E,B,]2 [C,F,]2 | (F,4 B,2) | [E,B,]2 [A,B,]2 [G,B,]2 | %21
 [F,B,]2 B,2 [A,B,]2 | [G,B,]2 [G,B,]2 [G,=B,]2 | (C4 D2) | [G,E]2 [D,B,]2 [E,B,]2 | %25
 [C,=A,]2 [B,,B,]3 [B,,_A,] | [E,G,]6 |] %27
V:4
 x6 | x2 B,2 x2 | x6 | A,6 | x6 | x6 | x6 | x6 | x2 B,2 x2 | x6 | C,6 | x6 | x6 | x6 || x6 | %15
 x2 A,2 x2 | x6 | x6 | x6 | B,,6 | x6 | x2 B,2 x2 | x6 | A,6 | x6 | x6 | x6 |] %27

